X:1
T:Title
%%score { ( 1 3 ) | ( 2 4 ) }
L:1/8
M:2/4
K:A
V:1 treble nm="Grand Piano"
V:3 treble 
V:2 bass 
V:4 bass 
V:1
 z2 z[Q:1/4=88] E | EF F>E | EF F>F | GA EA |[M:3/8] G2 z |[M:1/8] [DE] | %6
[M:2/4] [DE][DE] [DE]>[DE] | [DE][DE] [DE]>F | GA GF |[M:3/8] B2 z |[M:1/8] E |[M:2/4] EF F>G | %12
 GA A>c | c^A GF |[M:3/8] d2 z |[M:1/8] F |[M:2/4] FB A>F | Ed c>E | F[FA] [EG]<[DB] | %19
[M:3/8] [A,CA]2 z |[M:1/8] c |[M:2/4] c>G A>F | ^E>D C^D/E/ | F>A [^DB]>[Dc] |[M:3/8] B2 z | %25
[M:1/8] E |[M:2/4] cc d>c | ^Ac [DB]>F | %28
[M:19/32] z/4 z/4 z/4 z/4 z/4 z/4 z/ B/4-B/4-B/4-B/4-B/4-B/4-B/-<B/ z/4 | %29
[M:3/8] [CA]2- [CA]/4 z/4 z/ |] %30
V:2
 z4 | A,,2 [E,A,C]2 | E,,2 [E,A,C]2 | A,,2 [A,C]2 |[M:3/8] [E,G,D]2 z |[M:1/8] [B,,E,] | %6
[M:2/4] [B,,E,][B,,F,] [B,,F,]>[B,,G,] | [B,,G,][B,,A,] [B,,A,]>[E,A,D] | %8
 [E,B,D][E,CE] [E,B,D][E,A,D] |[M:3/8] [E,G,D]2 z |[M:1/8] z |[M:2/4] A,,2 [E,A,C]2 | %12
 E,,2 [E,A,C]2 | F,,2 [F,^A,E]2 |[M:3/8] [F,B,D]2 z |[M:1/8] [D,A,D] | %16
[M:2/4] [D,A,D][D,F,D] [D,F,D]>[^D,A,=C] | [E,A,C][E,A,F] [E,A,E]>[E,A,C] | %18
 [D,A,D][B,,B,] [E,B,]<[E,G,] |[M:3/8] A,,2 z |[M:1/8] C |[M:2/4] C>G, A,>F, | ^E,>D, C,^D,/E,/ | %23
 F,>[F,C] [B,,A,]>[B,,A,] |[M:3/8] [E,G,D]2 z |[M:1/8] E, |[M:2/4] [A,E][A,E] [F,^A,E]>[F,A,E] | %27
 [F,CE][F,^A,E] [B,,B,]>[^D,A,=C] | %28
[M:19/32] z/4 z/4 z/4 z/4 z/4 z/4 z/ [E,G,D]/4-[E,G,D]/4-[E,G,D]/4-[E,G,D]/4-[E,G,D]/4-[E,G,D]/4-[E,G,D]/-<[E,G,D]/ z/4 | %29
[M:3/8] [A,,A,]2- [A,,A,]/4 z/4 z/ |] %30
V:3
 x4 | x4 | x4 | x4 |[M:3/8] x3 |[M:1/8] x |[M:2/4] x4 | x4 | x4 |[M:3/8] x3 |[M:1/8] x | %11
[M:2/4] x4 | x4 | x4 |[M:3/8] x3 |[M:1/8] x |[M:2/4] x4 | x4 | x4 |[M:3/8] x3 |[M:1/8] x | %21
[M:2/4] x4 | x4 | x4 |[M:3/8] x3 |[M:1/8] x |[M:2/4] x4 | x4 | %28
[M:19/32] E/-<E/A/-<A/ z/4 z/4 z/4 z/4 z/4 z/4 z/ [DA]3/4 |[M:3/8] x3 |] %30
V:4
 x4 | x4 | x4 | x4 |[M:3/8] x3 |[M:1/8] x |[M:2/4] x4 | x4 | x4 |[M:3/8] x3 |[M:1/8] x | %11
[M:2/4] x4 | x4 | x4 |[M:3/8] x3 |[M:1/8] x |[M:2/4] x4 | x4 | x4 |[M:3/8] x3 |[M:1/8] x | %21
[M:2/4] x4 | x4 | x4 |[M:3/8] x3 |[M:1/8] x |[M:2/4] x4 | x4 | %28
[M:19/32] [E,A,C]/-<[E,A,C]/[E,A,C]/-<[E,A,C]/ z/4 z/4 z/4 z/4 z/4 z/4 z/ [A,,A,]3/4 |[M:3/8] x3 |] %30

